X:8
T:Khemetiu — Song of Songs on the Nile
C:Thalassa OST
M:6/8
L:1/8
Q:3/8=72
%%MIDI program 46
%%MIDI channel 1
V:1 name="Harp" clef=treble
V:2 name="Harp bass" clef=treble
K:C
% 6/8 floating — the pentatonic circles like reed boats on the river
V:1
|: C2D F2G | A3 G2F | D2F G2A | c6 |
   A2G F2D | C2D F3 | G2A G2F | C6 :|
V:2
%%MIDI program 46
%%MIDI channel 2
|: C,3 G,3 | F,3 C3 | G,3 D3 | C,3 G,3 |
   F,3 A,3 | G,3 C3 | G,3 C3 | C,6 :|
